X:362
T:River John Sunset Waltz
C:Florence Killen
C:Truro, Nova Scotia, Canada
M:3/4
L:1/8
K:D major
A FE |: "D"D3 E FG | A2 F2 D2 | "G"G3 D GB | d4 dB | "D"A3 B AG | 
[1 F2 G2 F2 |"A"E6 | E3 A FE :| [2 "A"E2 F2 E2 | "D"D6 | D3 B AG ||
|: F3 A de | f2 g2 a2 | "G"g3 a gd | B4 dB | "D"A2 d3 d |
 [1 d2 e2 f2 | "A"e6 | e3 B AG :| [2e2 f2 e2 | "D"d6 | d4 z2 |]


